!!!!SEGMENT: pl-wumfc--n28040_karlowicz-mieczyslaw--spi-w-blaskach-nocy-op-3-no-5.krn
!!!cenid: 18xx:4241
!!!COM: Karłowicz, Mieczysław
!!!COM-rismID: pe30108288
!!!CDT: 1876/12/11-1909/02/08
!!!CNT: Polish
!!!OTL: Śpi w blaskach nocy..., op. 3 No. 5
!!!PDT: 1896
!!!AGN:
!!!SMS-siglum: PL-Wumfc
!!!SMS-shelfmark: N28040
!!!SMS-shelfwork: W
!!!SMS-variant:
!!!SMS-altvar:
!!!NIFC-rismSourceID: 1001203007
!!!NIFC-rismChildID: 1001203007
!!!NIFC-islandoraID: pl-wumfc:20912
!!!URL-pdf-islandora: https://repozytorium.nifc.pl/islandora/object/pl-wumfc:20912/datastream/PDF/view
!!!URL-scan: https://polish.musicsources.pl/pl/lokalizacje/galeria/druki-muzyczne/11992/2 @EN{Scan on Polish Music Sources Website} @PL{Skany w portalu Dziedzictwo Muzyki Polskiej w otwartym dostępie}
!!!IIIF:
!!!ONB-nifc:
!!!AIN: 2 piano 1 vox
!!!key: F#
**kern	**kern	**dynam	**kern	**text	**text	**dynam
*part3	*part2	*part2	*part1	*part1	*part1	*part1
*staff3	*staff2	*	*staff1	*staff1	*staff1	*
*I"[fortepjan]	*I"[fortepjan]	*	*I"[głos]	*	*	*
*I'pf	*I'pf	*	*I'V	*	*	*
*ICklav	*ICklav	*	*ICvox	*	*	*
*Ipiano	*Ipiano	*	*Ivox	*	*	*
*clefF4	*clefG2	*	*clefG2	*	*	*
*k[f#c#g#d#a#e#]	*k[f#c#g#d#a#e#]	*	*k[f#c#g#d#a#e#]	*	*	*
*F#:	*F#:	*	*F#:	*	*	*
*M6/4	*M6/4	*	*M6/4	*	*	*
=1	=1	=1	=1	=1	=1	=1
!	!	!	!LO:TX:a:B:t=Allegro. M.M. [half.]=76.	!	!	!
4FFF#/ 4CC# 4FF#	4r	pp	1.r	.	.	.
4r	4a#\ 4cc# 4ff# 4aa#	.	.	.	.	.
4r	4a#\ 4cc# 4ff# 4aa#	.	.	.	.	.
2r	4a#\ 4cc# 4ff# 4aa#	.	.	.	.	.
.	4a#\ 4cc# 4ff# 4aa#	.	.	.	.	.
4r	4a#\ 4cc# 4ff# 4aa#	.	.	.	.	.
=2	=2	=2	=2	=2	=2	=2
2r	4a#\ 4cc# 4ff# 4aa#	<	2r	.	.	.
.	4a#\ 4cc# 4ff# 4aa#	.	.	.	.	.
4r	4a#\ 4cc# 4ff# 4aa#	.	4r	.	.	.
2r	4a#\ 4cc# 4ff# 4aa#	.	2r	.	.	.
.	4a#\ 4cc# 4ff# 4aa#	.	.	.	.	.
*clefG2	*	*	*	*	*	*
!	!	!	!	!	!	!LO:DY:a
4a#/	4a#\ 4cc# 4ff# 4aa#	[ p	4a#/	Śpi	Im	p
=3	=3	=3	=3	=3	=3	=3
2g#/	4a#\ 4cc# 4gg#	.	2g#/	w blas-	Mon-	.
.	4a#\ 4cc# 4gg#	.	.	.	.	.
4f#/	4a#\ 4cc# 4ff#	.	4f#/	-kach	-den-	.
2e#/	4f#/ 4a# 4ee#	.	2e#/	no-	-glan-	.
.	4f#/ 4a# 4ee#	.	.	.	.	.
4d#/	4f#/ 4a# 4dd#	.	4d#/	-cy	-ze	.
*clefF4	*	*	*	*	*	*
!!LO:LB:g=original	!	!	!	!	!	!
=4	=4	=4	=4	=4	=4	=4
!	!	!	!	!	!	!LO:HP:a
2.G#\ 2.d#	4f#/ 4b 4dd#	<	2d#/	mor-	rüht	<
.	4f#/ 4b 4dd#	.	.	.	.	.
.	4f#\ 4b 4dd# 4gg#	.	4g#/	-ska	das	.
2.G#\ 2.d#	4f#\ 4b 4dd# 4gg#	.	2g#,/	toń,	Meer,	.
.	4f#\ 4b 4dd# 4gg#	.	.	.	.	.
.	4f#\ 4b 4dd# 4gg#	[[	4g#/	le-	die	[[
=5	=5	=5	=5	=5	=5	=5
*^	*	*	*	*	*	*
!	!	!	!	!	!	!	!LO:HP:a
2.d#/	2.C#\ 2.G#	4f#\ 4b 4dd# 4gg#	>	2g#/	-ciuch-	Wo-	>
.	.	4f#\ 4b 4dd# 4gg#	.	.	.	.	.
.	.	4f#\ 4b 4dd# 4gg#	.	4f#/	-no	-gen	.
2d#/	2.C#\ 2.G#	4e#\ 4b 4cc# 4gg#	.	(4e#/	szem-	mur-	.
.	.	4e#/ 4b 4cc#	.	4g#/)	.	.	.
4c#/	.	4e#/ 4b 4cc#	]]	4c#/	-rzą	-meln	]]
*v	*v	*	*	*	*	*	*
=6	=6	=6	=6	=6	=6	=6
2.FF#/ 2.C#	4e#/ 4a# 4cc#	.	2.a#/	fa-	lei-	.
.	4e#/ 4a# 4cc#	.	.	.	.	.
.	4e#/ 4a# 4cc#	.	.	.	.	.
2F#\ 2c#	4f#/ 4a# 4cc#	.	4a#/	-le,	-se;	.
.	4f#/ 4a# 4cc#	.	4r	.	.	.
*clefG2	*	*	*	*	*	*
!	!	!	!	!	!	!LO:DY:a
4a#/	4a#\ 4cc# 4ff# 4aa#	p	4a#/	a	mir	p
=7	=7	=7	=7	=7	=7	=7
2g#/	4a#\ 4cc# 4gg#	.	2g#/	mnie	wird	.
.	4a#\ 4cc# 4gg#	.	.	.	.	.
4f#/	4a#\ 4cc# 4ff#	.	4f#/	na	das	.
2e#/	4f#/ 4a# 4ee#	.	2e#/	ser-	Herz	.
.	4f#/ 4a# 4ee#	.	.	.	.	.
4en/	4f#/ 4a# 4een	.	4en/	-cu	so	.
*clefF4	*	*	*	*	*	*
!!LO:LB:g=original	!	!	!	!	!	!
=8	=8	=8	=8	=8	=8	=8
*^	*	*	*	*	*	*
!	!	!	!	!	!	!	!LO:HP:a
2r	1.FF##X	4d#/ 4a# 4cc# 4dd#	<	2d#/	cięż-	bang	<
.	.	4d#/ 4a# 4cc# 4dd#	.	.	.	.	.
4A#^/	.	4d#/ 4a# 4cc# 4dd#	.	4d#/	-ko	und	.
2B^/	.	4d#/ 4b 4cc# 4dd#	.	2d#/	tak,	schwer	.
.	.	4d#/ 4b 4cc# 4dd#	.	.	.	.	.
4A#^/	.	4d#/ 4a# 4cc# 4dd#	.	4d#/	wspo-	ich	.
*v	*v	*	*	*	*	*	*
=9	=9	=9	=9	=9	=9	=9
2.GG#^>/ 2.G#	4d#/ 4g# 4b 4dd#	.	2d#/	-mi-	denk	.
.	4d#/ 4g# 4b 4dd#	.	.	.	.	.
.	4g#\ 4b 4dd# 4gg#	.	4g#/	-nam	der	.
2.AA#\ 2.A#	4f#\ 4g# 4cc##X 4ff#	.	2f#/	daw-	al-	.
.	4f#\ 4g# 4cc## 4ff#	.	.	.	.	.
.	4e#/ 4g# 4cc## 4ee#	.	4e#/	-ne	-len	.
=10	=10	=10	=10	=10	=10	=10
*^	*	*	*	*	*	*
!	!	!	!	!	!	!	!LO:DY:a
4r	1.DD# 1.AA#	4g#\ 4cc##X 4aa#	f	2.a#/	ża-	Wei-	f
4D#/ 4A# 4c##X	.	4g#\ 4cc## 4ff# 4aa#	.	.	.	.	.
4D#/ 4A# 4c##	.	4g#\ 4cc## 4ee# 4aa#	.	.	.	.	.
4D#/ 4A# 4d#	.	4f#\ 4dd# 4aa#	.	4d#/	-le.	-se,	.
4r	.	4d#/	mf	4r	.	.	.
!	!	!	!	!	!	!	!LO:DY:a
4r	.	4d#/	.	4d#/	I	der	mf
*v	*v	*	*	*	*	*	*
=11	=11	=11	=11	=11	=11	=11
2.BB\ 2.D#	4F#</ 4B< 4d#	.	2d#/	o-	al-	.
.	4F#</ 4B< 4d#	.	.	.	.	.
.	[>4F#</ [>4B< [4d#	.	4d#/	-we	-len	.
2.BBB^<\ 2.FF#	4F#</] 4B<] 4d#]	.	2d#/	wieś-	Wei-	.
.	4F#</ 4B< 4d#	.	.	.	.	.
.	4r	.	4d#/	-ci	-se,	.
!!LO:LB:g=original	!	!	!	!	!	!
=12	=12	=12	=12	=12	=12	=12
2.D#\	4F#</ 4A#< 4d#	.	2f#/	daw-	die	.
.	4F#</ 4A#< 4d#	.	.	.	.	.
.	[>4F#</ [>4A#< [4d#	.	4f#/	-nych	uns	.
2.DDD#^<\ 2.AAA# 2.DD#	4F#</] 4A#<] 4d#]	.	2.d#/	lat,	singt	.
.	4F#</ 4A#< 4d#	.	.	.	.	.
.	4F#</ 4A#< 4d#	.	.	.	.	.
=13	=13	=13	=13	=13	=13	=13
*	*^	*	*	*	*	*
!	!	!	!	!	!	!	!LO:HP:a
2.BB\ 2.D# 2.F#	2.G##X/ 2.g##X	4r	<	4g##X/	miast	von	<
.	.	4d#\ 4f#	.	4g##/	za-	den	.
.	.	4d#\ 4f#	.	4g##/	-to-	ver-	.
2.BBB^/ 2.FF#	2.A#/ 2.a#	4r	.	2a#/	-pio-	-lor-	.
.	.	4d#\ 4f#	.	.	.	.	.
.	.	4d#\ 4f#	[[	4a#/	-nych	-nen	[[
=14	=14	=14	=14	=14	=14	=14	=14
!	!	!	!	!	!	!	!LO:HP:a
2.BB\ 2.D# 2.F#	2.B/ 2.b	4r	>	2.b\	ję-	Städ-	>
.	.	4d#\ 4f#	.	.	.	.	.
.	.	4d#\ 4f#	.	.	.	.	.
2.BBB^/ 2.FF#	2.A#/ 2.a#	4r	.	2a#/	-ki;	-ten,	.
.	.	4d#\ 4f#	.	.	.	.	.
.	.	4d#\ 4f#	]]	4a#/	i	wo	]]
=15	=15	=15	=15	=15	=15	=15	=15
2.BB\ 2.F#	2.G#/ 2.g#	4r	.	2g#/	ze	aus	.
.	.	4d#\ 4f#	.	.	.	.	.
.	.	4d#\ 4f#	.	4g#/	dna	dem	.
2.BBB^/ 2.FF#	2.dn/ 2.ddn	4r	.	2g#/	mo-	Mee-	.
.	.	4f#\ 4g#	.	.	.	.	.
.	.	4f#\ 4g#	.	4g#/	-rza	-res-	.
!!LO:PB:g=original	!	!	!	!	!	!	!
=16	=16	=16	=16	=16	=16	=16	=16
2.BB#X\ 2.F# 2.An	2.dn/ 2.ddn	4r	<	2an/	sły-	-grun-	.
.	.	4f#\ 4an	.	.	.	.	.
.	.	4f#/ 4ff#	.	4a/	-szę	-de	.
2.BBB#X^/ 2.FF#	2.en/ 2.een	4r	[ >	2.f#/	w noc	klingt	.
.	.	4f#\ 4a	.	.	.	.	.
.	.	4d/ 4dd	]	.	.	.	.
*	*v	*v	*	*	*	*	*
=17	=17	=17	=17	=17	=17	=17
!	!	!LO:HP::t=dim.	!	!	!	!LO:HP:a:t=dim.
2.C#\ 2.F# 2.An	4c#/ 4f# 4an 4cc#	>	4f#/	mod-	Glo-	>
.	4B/ 4g#	.	4g#/	-ły	-cken-	.
.	4c#/ 4a	.	4an/	i	-ge-	.
2.CC#^/ 2.FF#	4An/ 4c# 4g#	.	2g#/	dzwo-	-lãut	.
.	4A/ 4c# 4g#	.	.	.	.	.
.	4A/ 4c# 4f#	.	4f#/	-nów	und	.
=18	=18	=18	=18	=18	=18	=18
*	*	*	*^	*	*	*
!	!LO:TX:b:i:t=rit.	!	!LO:TX:a:i:t=rit.	!	!	!	!
2.C#\ 2.G# 2.B	4c#/ 4f# 4cc#	.	2.f#/	1ryy	dźwię-	Be-	.
.	4c#/ 4f# 4cc#	.	.	.	.	.	.
.	4en/ 4f# 4een	.	.	.	.	.	.
2.CC#^/ 2.GG#	4dn/ 4e#X 4ddn	.	2e#/	.	-ki	-ten.	.
.	4d/ 4e# 4dd	.	.	4ryy	.	.	.
.	4c#/ 4e# 4cc#	.	4r	4c#\	Das	.	.
*	*	*	*v	*v	*	*	*
*kcancel	*kcancel	*	*kcancel	*	*	*
=19||	=19||	=19||	=19||	=19||	=19||	=19||
*k[f#c#g#]	*k[f#c#g#]	*	*k[f#c#g#]	*	*	*
*	*	*	*^	*	*	*
!	!LO:TX:b:i:t=a tempo	!	!LO:TX:a:i:t=a tempo	!	!	!	!LO:DY:a
4FFF#/ 4CC# 4FF#	4c#/ 4f# 4a	p	4f#/	2f#\	A-	Läu-	p
4r	4a\ 4cc# 4ff#	.	4f#/	.	-le	.	.
*clefG2	*	*	*	*	*	*	*
4a/	4a\ 4cc# 4ff# 4aa	.	4a/	4a\	nie	-ten	.
2g#/	4a\ 4cc# 4gg#	.	2g#/	2.ryy	zba-	und	.
.	4a\ 4cc# 4gg#	.	.	.	.	.	.
4f#/	4a\ 4cc# 4ff#	.	4f#/	.	-wią	das	.
*	*	*	*v	*v	*	*	*
!!LO:LB:g=original	!	!	!	!	!	!
=20	=20	=20	=20	=20	=20	=20
2e/	4f#/ 4a 4ee	.	2e/	mast	Be-	.
.	4f#/ 4a 4ee	.	.	.	.	.
4d/	4f#/ 4a 4dd	.	4d/	tych	-ten,	.
2.c#/	4f#/ 4a 4cc#	.	2.c#/	już	wisst,	.
.	4f#/ 4a 4cc#	.	.	.	.	.
.	4f#/ 4a 4cc#	.	.	.	.	.
*clefF4	*	*	*	*	*	*
=21	=21	=21	=21	=21	=21	=21
2.GGG#/ 2.GG#	4d/ 4f# 4cc#	.	4c#/	mod-	wird	.
.	4d/ 4f# 4cc#	.	4c#/	-ły	nicht	.
.	4d/ 4f# 4b	.	4B/	i	den	.
2.CC#/ 2.C#	4B/ 4d 4a	.	2d/	dzwo-	Städ-	.
.	4B/ 4d 4a	.	.	.	.	.
.	4B/ 4e#X	.	4c#/	-nów	-ten	.
=22	=22	=22	=22	=22	=22	=22
2.FF#/ 2.C#	4A/ 4c# 4e#X	.	2.c#/	bi-	from-	.
.	4A/ 4c# 4e#	.	.	.	.	.
.	4A/ 4c# 4e#	.	.	.	.	.
2F#\	4A/ 4c# 4f#	.	4c#/	-cia,	-men,	.
.	4A/ 4c# 4f#	.	4r	.	.	.
*clefG2	*	*	*	*	*	*
4a/	4a\ 4cc# 4ff# 4aa	.	4a/	bo	denn-	.
=23	=23	=23	=23	=23	=23	=23
2g#/	4a\ 4cc# 4gg#	.	2g#/	to,	-was	.
.	4a\ 4cc# 4gg#	.	.	.	.	.
4f#/	4a\ 4cc# 4ff#	.	4f#/	co	ein-	.
2e#X/	4a\ 4cc# 4ee#X	.	2e#X/	raz	-mal	.
.	4a\ 4cc# 4ee#	.	.	.	.	.
4f#/	4a\ 4cc# 4ff#	.	4f#/	chwy-	be-	.
*clefF4	*	*	*	*	*	*
!!LO:LB:g=original	!	!	!	!	!	!
=24	=24	=24	=24	=24	=24	=24
!	!	!	!	!	!	!LO:HP:a
2.BBB/ 2.BB	4f#/ 4b 4een	<	2en/	-ci-	-gra-	<
.	4f#/ 4b 4ee	.	.	.	.	.
.	4f#/ 4b 4dd	.	4d/	-ła	-ben	.
2.BBB#X/ 2.BB#X	4d/ 4f# 4a 4dd	.	2.d/	śmierć,	ist,	.
.	4d/ 4f# 4a 4dd	.	.	.	.	.
.	4d/ 4f# 4a 4dd	.	.	.	.	.
=25	=25	=25	=25	=25	=25	=25
2.CC#/ 2.C#	4d/ 4f# 4dd	mf	2r	.	.	.
.	4d/ 4f# 4dd	.	.	.	.	.
.	4d/ 4f# 4dd	.	4r	.	.	.
!	!	!	!	!	!	!LO:DY:a
[>2.G#\ [2.B	4d/ 4f# 4dd	.	2.d/	nie	das	mf
.	4d/ 4f# 4dd	.	.	.	.	.
.	4d/ 4f# 4dd	.	.	.	.	.
=26	=26	=26	=26	=26	=26	=26
*^	*	*	*	*	*	*
!	!	!LO:TX:b:i:t=rit.	!LO:HP:t=dim.	!LO:TX:a:i:t=rit.	!	!	!LO:HP:t=dim.
2.G#/] 2.B]	1.C#	4d/ 4e#X 4dd	>	2d/	wró-	kann	>
.	.	4d/ 4e# 4dd	.	.	.	.	.
.	.	4d/ 4e# 4dd	.	4d/	-ci	nicht	.
2.G#/ 2.B	.	4c#/ 4e# 4cc#	.	2c#/	się	wie-	.
.	.	4c#/ 4e# 4cc#	.	.	.	.	.
.	.	4c#/ 4e# 4cc#	.	4c#/	do	-der-	.
*v	*v	*	*	*	*	*	*
=27	=27	=27	=27	=27	=27	=27
!	!LO:TX:b:i:t=a tempo	!	!LO:TX:a:i:t=a tempo	!	!	!LO:DY:a
2FF#/ 2C#	4c#/ 4f# 4a 4cc#	p	2.c#/	ży-	-kom-	p
.	4c#/ 4f# 4a 4cc#	.	.	.	.	.
*clefG2	*	*	*	*	*	*
4a/	4a\ 4cc# 4aa	.	.	.	.	.
2g#/	4a\ 4cc# 4gg#	.	2c#/	-cia.	-men.	.
.	4a\ 4cc# 4gg#	.	.	.	.	.
4f#/	4a\ 4cc# 4ff#	.	4r	.	.	.
*clefF4	*	*	*	*	*	*
!!LO:LB:g=original	!	!	!	!	!	!
=28	=28	=28	=28	=28	=28	=28
*^	*	*	*	*	*	*
1.B#X^ 1.d	2r	4f#^>/ 4a 4dd	.	1.r	.	.	.
.	.	4f#/ 4a 4dd	.	.	.	.	.
.	4r	4f#/ 4a 4dd	.	.	.	.	.
!	!	!	!LO:HP:t=dim.	!	!	!	!
.	[2.F#\	4f#/ 4a 4ee	>	.	.	.	.
.	.	4f#/ 4a 4ee	.	.	.	.	.
.	.	4f#/ 4a 4dd	.	.	.	.	.
=29	=29	=29	=29	=29	=29	=29	=29
2c#/	2F#\]	4f#/ 4a 4cc#	pp	1.r	.	.	.
.	.	4f#/ 4a 4cc#	.	.	.	.	.
*clefG2	*	*	*	*	*	*	*
4a/	1ryy	4a\ 4cc# 4aa	.	.	.	.	.
2g#/	.	4a\ 4cc# 4gg#	.	.	.	.	.
.	.	4a\ 4cc# 4gg#	.	.	.	.	.
4f#/	.	4a\ 4cc# 4ff#	.	.	.	.	.
*clefF4	*	*	*	*	*	*	*
=30	=30	=30	=30	=30	=30	=30	=30
1.Bn^ 1.d	2r	4e#X^>/ 4g# 4dd	.	1.r	.	.	.
.	.	4e#/ 4g# 4dd	.	.	.	.	.
.	4r	4e#/ 4g# 4dd	.	.	.	.	.
.	2.F#\	4e#/ 4g# 4een	.	.	.	.	.
.	.	4e#/ 4g# 4ee	.	.	.	.	.
.	.	4e#/ 4g# 4dd	.	.	.	.	.
=31	=31	=31	=31	=31	=31	=31	=31
2.c#/	2.F#\	2.f#/ 2.a 2.cc#	.	1.r	.	.	.
2.D\ 2.A 2.d	2.ryy	2.f#\ 2.a 2.dd 2.ff#	mf	.	.	.	.
*v	*v	*	*	*	*	*	*
=32	=32	=32	=32	=32	=32	=32
!	!LO:TX:b:i:t=poco rit.	!	!	!	!	!
(8qAAA#X/ 8qAA#X	.	.	.	.	.	.
2.E#X\) 2.A#X 2.c#X	2.e#X/ 2.a#X 2.cc#X 2.ee#X	.	1.r	.	.	.
(8qCC#/	.	.	.	.	.	.
2.C#\) 2.G# 2.B	2.e#/ 2.b 2.cc# 2.ee#	.	.	.	.	.
=33	=33	=33	=33	=33	=33	=33
(8qFFF#/ 8qFF#	.	.	.	.	.	.
[1.C#) [1.F# [1.An [1.c#	[1.f# [1.an [1.cc# [1.ff#	.	1.r	.	.	.
=34	=34	=34	=34	=34	=34	=34
1.C#] 1.F#] 1.A] 1.c#]	1.f#] 1.a] 1.cc#] 1.ff#]	.	1.r	.	.	.
==	==	==	==	==	==	==
*-	*-	*-	*-	*-	*-	*-
!!!system-decoration: s1{(s2,s3)}
!!!RDF**kern: > = above
!!!RDF**kern: < = below
!!!ENC: Anastazja Marusiak
!!!END: 2022-11-23
!!!ENC: Jan Barakat
!!!END: 2022-12-08
!!!YEC: Copyright 2022 Narodowy Instytut Fryderyka Chopina (https://polishscores.org)
!!!YEM: License CC-BY-4.0 (https://creativecommons.org/licenses/by/4.0)
